packages/icon/src/svg/curriculum.icon.svg

<svg width="24" height="24" viewBox="0 0 24 24" fill="none" xmlns="http://www.w3.org/2000/svg">
<path fill-rule="evenodd" clip-rule="evenodd" d="M12.5 4H7.5C7.22386 4 7 4.22386 7 4.5V9.5C7 9.7761 7.22386 10 7.5 10H12.5C12.7761 10 13 9.7761 13 9.5V4.5C13 4.22386 12.7761 4 12.5 4ZM9 6V8H11V6H9Z" fill="white"/>
<path fill-rule="evenodd" clip-rule="evenodd" d="M17 1V17C17 17.5523 16.5523 18 16 18H4C3.44772 18 3 17.5523 3 17V14H2.5C2.22386 14 2 13.7761 2 13.5V12.5C2 12.2239 2.22386 12 2.5 12H3V10H2.5C2.22386 10 2 9.7761 2 9.5V8.5C2 8.22386 2.22386 8 2.5 8H3V6H2.5C2.22386 6 2 5.77614 2 5.5V4.5C2 4.22386 2.22386 4 2.5 4H3V1C3 0.44772 3.44772 0 4 0H16C16.5523 0 17 0.44772 17 1ZM5 14V16H15.002L15 2H5V4H5.5C5.77614 4 6 4.22386 6 4.5V5.5C6 5.77614 5.77614 6 5.5 6H5V8H5.5C5.77614 8 6 8.22386 6 8.5V9.5C6 9.7761 5.77614 10 5.5 10H5V12H5.5C5.77614 12 6 12.2239 6 12.5V13.5C6 13.7761 5.77614 14 5.5 14H5Z" fill="white"/>
<path d="M7 20.8V19H9V19.5C9 19.7761 9.22386 20 9.5 20H19V6H18V4H20.1765C20.6313 4 21 4.53726 21 5.2V20.8C21 21.4627 20.6313 22 20.1765 22H7.82353C7.36871 22 7 21.4627 7 20.8Z" fill="white"/>
</svg>

<svg aria-label="curriculum icon" viewBox="0 0 24 24"><path fill-rule="evenodd" clip-rule="evenodd" d="M12.5 4h-5a.5.5 0 00-.5.5v5a.5.5 0 00.5.5h5a.5.5 0 00.5-.5v-5a.5.5 0 00-.5-.5zM9 6v2h2V6H9z"/><path fill-rule="evenodd" clip-rule="evenodd" d="M17 1v16a1 1 0 01-1 1H4a1 1 0 01-1-1v-3h-.5a.5.5 0 01-.5-.5v-1a.5.5 0 01.5-.5H3v-2h-.5a.5.5 0 01-.5-.5v-1a.5.5 0 01.5-.5H3V6h-.5a.5.5 0 01-.5-.5v-1a.5.5 0 01.5-.5H3V1a1 1 0 011-1h12a1 1 0 011 1zM5 14v2h10.002L15 2H5v2h.5a.5.5 0 01.5.5v1a.5.5 0 01-.5.5H5v2h.5a.5.5 0 01.5.5v1a.5.5 0 01-.5.5H5v2h.5a.5.5 0 01.5.5v1a.5.5 0 01-.5.5H5z"/><path d="M7 20.8V19h2v.5a.5.5 0 00.5.5H19V6h-1V4h2.177c.454 0 .823.537.823 1.2v15.6c0 .663-.369 1.2-.823 1.2H7.824C7.369 22 7 21.463 7 20.8z"/></svg>
